X: 1293
T: Kürdîlihicazkâr Aranağme (Semâî)
C: ?
O: Turkey
F: http://compmusic.upf.edu/node/140
N: kurdilihicazkar--aranagme--semai--1--
N: makam= kurdilihicazkar
N: form= aranagme
N: usul= semai = 3/4
M: 3/4
L: 1/16
K: C _B _e _A 
Q: 1/4=120
%%MIDI tuningsystem comma53
(3f2f2f2 a8  | (3e2e2e2 g8  | (3d2d2d2 f8  | \
w:  ARANAĞME  |   |   | 
cdcd e8  | BBc2 dde2 ffg2  | 
w:   |   | 
ggb2 b2a2 a2g2  | (3b2a2g2 g8  | g8 z4  | \
w:   |   |   | 
(3a2g2f2 a8  | (3g2f2e2 g8  | 
w:   |   | 
(3f2e2d2 f8  | edcd e8  | B2c2 d2e2 f2a2  | \
w:   |   |   | 
g2f2 e2d2 c2d2  | 
w:   | 
B2A2 G8  | G12  | |


